libs/icons/src/svg/list-numbers.svg

<svg width="16" height="16" viewBox="0 0 16 16" fill="none" xmlns="http://www.w3.org/2000/svg">
<g clip-path="url(#clip0_4_319)">
<path fill-rule="evenodd" clip-rule="evenodd" d="M1.03962 3.92089V4.39517L3.14638 4.39518V3.92089L2.6542 3.8789C2.56403 3.87304 2.55817 3.85513 2.55817 3.75911V0.938141H1.11774L1.05166 1.43033L1.5738 1.5384C1.63402 1.5563 1.65192 1.59243 1.65192 1.66437V3.7591C1.65192 3.84895 1.63988 3.87303 1.5559 3.87889L1.03962 3.92089ZM5.33332 1.99999C4.96513 1.99999 4.66666 2.29847 4.66666 2.66666C4.66666 3.03485 4.96513 3.33332 5.33332 3.33332H15.3333C15.7015 3.33332 16 3.03485 16 2.66666C16 2.29847 15.7015 1.99999 15.3333 1.99999H5.33332ZM5.33332 7.33332C4.96513 7.33332 4.66666 7.6318 4.66666 7.99999C4.66666 8.36818 4.96513 8.66666 5.33332 8.66666H15.3333C15.7015 8.66666 16 8.36818 16 7.99999C16 7.6318 15.7015 7.33332 15.3333 7.33332H5.33332ZM4.66666 13.3333C4.66666 12.9651 4.96513 12.6667 5.33332 12.6667H15.3333C15.7015 12.6667 16 12.9651 16 13.3333C16 13.7015 15.7015 14 15.3333 14H5.33332C4.96513 14 4.66666 13.7015 4.66666 13.3333ZM0.727611 9.77358V9.21532L1.53197 8.42919L1.58502 8.37773C2.15319 7.82664 2.39623 7.59091 2.39623 7.25894C2.39623 7.03661 2.28816 6.87483 1.97012 6.87483C1.63972 6.87483 1.5017 6.9829 1.5017 7.40901L0.685618 7.33674C0.691478 6.38264 1.41772 6.22639 2.04792 6.22639C2.97826 6.22639 3.30834 6.62255 3.30834 7.18668C3.30834 7.74947 2.92066 8.12101 2.48408 8.53941L2.48021 8.54312L1.80183 9.19156H2.68432C2.74421 9.19156 2.7683 9.17951 2.78034 9.11929L2.86433 8.64533H3.5004V9.77358H0.727611ZM3.54548 14.1916C3.54548 13.6515 3.26357 13.3455 2.75316 13.2674V13.2433C3.13141 13.1294 3.44359 12.8114 3.44359 12.3071C3.44359 11.6649 3.08942 11.3107 2.16527 11.3107C1.53506 11.3107 0.820867 11.4728 0.820867 12.4211L1.64313 12.4933C1.64313 12.0672 1.79906 11.9591 2.12295 11.9591C2.45922 11.9591 2.56111 12.145 2.56111 12.3732C2.56111 12.7573 2.32706 12.9673 1.89509 13.0213L1.60082 13.0574V13.6574C1.78115 13.6274 1.89509 13.6154 2.04515 13.6154C2.41722 13.6154 2.64541 13.7654 2.64541 14.1317C2.64541 14.5519 2.35733 14.6717 2.02107 14.6717C1.60081 14.6717 1.34887 14.4979 1.12067 14.2759L0.640533 14.8039C0.946847 15.1401 1.48689 15.3559 2.09301 15.3559C2.95141 15.3559 3.54548 14.9839 3.54548 14.1916Z" fill="#202327"/>
</g>
<defs>
<clipPath id="clip0_4_319">
<rect width="16" height="16" fill="white"/>
</clipPath>
</defs>
</svg>

<svg xmlns="http://www.w3.org/2000/svg" viewBox="0 0 16 16" class="sageicon"><path fill-rule="evenodd" d="M1.04 3.92v.475h2.106v-.474l-.492-.042c-.09-.006-.096-.024-.096-.12V.94h-1.44l-.066.491.522.108c.06.018.078.054.078.126V3.76c0 .09-.012.114-.096.12l-.516.042ZM5.333 2a.667.667 0 0 0 0 1.333h10a.667.667 0 1 0 0-1.333h-10Zm0 5.333a.667.667 0 0 0 0 1.334h10a.667.667 0 1 0 0-1.334h-10Zm-.666 6c0-.368.298-.666.666-.666h10a.667.667 0 1 1 0 1.333h-10a.667.667 0 0 1-.666-.667Zm-3.94-3.56v-.558l.805-.786.053-.051c.568-.551.811-.787.811-1.12 0-.221-.108-.383-.426-.383-.33 0-.468.108-.468.534l-.816-.072c.005-.954.732-1.11 1.362-1.11.93 0 1.26.396 1.26.96 0 .562-.387.934-.824 1.352l-.004.004-.678.649h.882c.06 0 .084-.012.096-.073l.084-.474H3.5v1.129H.728Zm2.818 4.419c0-.54-.281-.847-.792-.925v-.024a.94.94 0 0 0 .69-.936c0-.642-.354-.996-1.278-.996-.63 0-1.344.162-1.344 1.11l.822.072c0-.426.156-.534.48-.534.336 0 .438.186.438.414 0 .384-.234.594-.666.648l-.294.036v.6c.18-.03.294-.042.444-.042.372 0 .6.15.6.517 0 .42-.288.54-.624.54-.42 0-.672-.174-.9-.396l-.48.528c.306.336.846.552 1.452.552.858 0 1.452-.372 1.452-1.164Z"/></svg>
